X:20
T:Pat Tuohy's
S:Trad, arr. Paddy O'Brien 
R:reel
E:9
I:speed 350
M:C|
K:EDor
A2|BE~E2 BAFE|~D2FD ADFA|BE~E2 BAFA|Bdeg fded|\
BE~E2 BAFE|~D2FD ADFA|BE~E2 BAFA|Bdeg fe e||\
d|~e2 ge Bege|defg agfg|~e2 ge Bege|defa geed|\
~e2 ge Bege|defg ~a2 ga|bgaf gfed|Bdeg fe e2||**

